Newaita-dark/apps/64/com.github.timecraft.notifier.svg

<svg height="64" viewBox="0 0 64 64" width="64" xmlns="http://www.w3.org/2000/svg" xmlns:xlink="http://www.w3.org/1999/xlink"><linearGradient id="a" gradientUnits="userSpaceOnUse" x1="31.75304" x2="31.75304" y1="56.067872" y2="58.71396000006"><stop offset="0" stop-opacity=".27451"/><stop offset="1" stop-opacity="0"/></linearGradient><linearGradient id="b"><stop offset="0" stop-opacity=".313726"/><stop offset=".222222" stop-opacity=".27451"/><stop offset="1" stop-opacity="0"/></linearGradient><radialGradient id="c" cx="450.908936" cy="189.579361" gradientTransform="matrix(.00000035 -.156265 -.281277 -.0000002 104.261296 127.190665)" gradientUnits="userSpaceOnUse" r="21.166656" xlink:href="#b"/><radialGradient id="d" cx="450.908936" cy="189.579361" gradientTransform="matrix(-.00000035 .156265 .281277 .0000002 -40.755227 -15.054958)" gradientUnits="userSpaceOnUse" r="21.166656" xlink:href="#b"/><radialGradient id="e" cx="450.908936" cy="189.579361" gradientTransform="matrix(-.00000035 -.156265 .281277 -.0000002 -40.755227 127.190665)" gradientUnits="userSpaceOnUse" r="21.166656" xlink:href="#b"/><radialGradient id="f" cx="450.908936" cy="189.579361" gradientTransform="matrix(.00000035 .156265 -.281277 .0000002 104.261293 -15.054959)" gradientUnits="userSpaceOnUse" r="21.166656" xlink:href="#b"/><linearGradient id="g" gradientUnits="userSpaceOnUse" x1="21.16869799994" x2="21.16869799994" y1="56.067868" y2="5.79221000013"><stop offset="0" stop-color="#f44336"/><stop offset="1" stop-color="#ef5350"/></linearGradient><linearGradient id="h" gradientUnits="userSpaceOnUse" x1="31.821471" x2="31.821471" y1="53.42186990428" y2="11.08446038278"><stop offset="0" stop-color="#bdbdbd"/><stop offset="1" stop-color="#e0e0e0"/></linearGradient><path d="m11.90625 55.871094h39.691406v2.941406h-39.691406zm0 0" fill="url(#a)"/><path d="m51.597656 56.066406h5.292969v-2.644531h-5.292969zm0 0" fill="url(#c)"/><path d="m11.90625 56.066406h-5.292969v2.648438h5.292969zm0 0" fill="url(#d)"/><path d="m11.90625 56.066406h-5.292969v-2.644531h5.292969zm0 0" fill="url(#e)"/><path d="m51.597656 56.066406h5.292969v2.648438h-5.292969zm0 0" fill="url(#f)"/><path d="m9.261719 5.792969h44.984375c1.460937 0 2.644531 1.183593 2.644531 2.644531v44.984375c0 1.460937-1.183594 2.644531-2.644531 2.644531h-44.984375c-1.460938 0-2.648438-1.183594-2.648438-2.644531v-44.984375c0-1.460938 1.1875-2.644531 2.648438-2.644531zm0 0" fill="url(#g)"/><path d="m9.261719 5.792969c-1.464844 0-2.648438 1.179687-2.648438 2.644531v.332031c0-1.464843 1.183594-2.648437 2.648438-2.648437h44.984375c1.464844 0 2.644531 1.183594 2.644531 2.648437v-.332031c0-1.464844-1.179687-2.644531-2.644531-2.644531zm0 0" fill="#e6e6e6" fill-opacity=".392157"/><path d="m9.261719 56.066406c-1.464844 0-2.648438-1.179687-2.648438-2.644531v-.332031c0 1.46875 1.183594 2.648437 2.648438 2.648437h44.984375c1.464844 0 2.644531-1.179687 2.644531-2.648437v.332031c0 1.464844-1.179687 2.644531-2.644531 2.644531zm0 0" fill-opacity=".196078"/><path d="m74.086675-168.660675h359.840637c11.686384 0 21.15423 9.467846 21.15423 21.15423v359.840637c0 11.686384-9.467846 21.154229-21.15423 21.154229h-359.840637c-11.686384 0-21.185477-9.467845-21.185477-21.154229v-359.840637c0-11.686384 9.499093-21.15423 21.185477-21.15423zm0 0" fill="none" stroke="#212121" stroke-linecap="round" stroke-width="3" transform="matrix(.125012 0 0 .125012 0 26.877566)"/><path d="m29.175781 16.378906c-.769531 0-1.375.65625-1.316406 1.421875l1.320313 17.199219c.054687.6875.628906 1.21875 1.320312 1.21875h2.644531c.691407 0 1.265625-.53125 1.316407-1.21875l1.324218-17.199219c.058594-.765625-.546875-1.421875-1.316406-1.421875zm2.644531 22.488282c-1.464843 0-2.644531 1.179687-2.644531 2.648437 0 1.464844 1.179688 2.644531 2.644531 2.644531 1.46875 0 2.648438-1.179687 2.648438-2.644531 0-1.46875-1.179688-2.648437-2.648438-2.648437zm0 0" fill="url(#h)"/><path d="m29.175781 16.378906c-.769531 0-1.375.65625-1.316406 1.421875l.039063.546875c.152343-.558594.664062-.976562 1.277343-.976562h5.292969c.613281 0 1.121094.417968 1.273438.976562l.042968-.546875c.058594-.765625-.546875-1.421875-1.316406-1.421875zm2.644531 22.488282c-1.464843 0-2.644531 1.179687-2.644531 2.648437 0 .167969.015625.335937.046875.496094.230469-1.226563 1.300782-2.152344 2.597656-2.152344 1.296876 0 2.371094.925781 2.601563 2.152344.03125-.160157.046875-.328125.046875-.496094 0-1.46875-1.179688-2.648437-2.648438-2.648437zm0 0" fill="#fff" fill-opacity=".86129"/><path d="m27.921875 18.613281c-.054687.160157-.078125.332031-.0625.511719l1.320313 17.199219c.054687.691406.628906 1.222656 1.320312 1.222656h2.644531c.691407 0 1.265625-.53125 1.316407-1.222656l1.324218-17.199219c.011719-.179688-.011718-.351562-.0625-.511719l-1.261718 16.386719c-.050782.6875-.625 1.21875-1.316407 1.21875h-2.644531c-.691406 0-1.265625-.53125-1.320312-1.21875zm1.335937 23.5625c-.054687.210938-.082031.433594-.082031.664063 0 1.464844 1.179688 2.644531 2.644531 2.644531 1.46875 0 2.648438-1.179687 2.648438-2.644531 0-.230469-.03125-.453125-.085938-.664063-.289062 1.144531-1.324218 1.984375-2.5625 1.984375-1.234374 0-2.269531-.839844-2.5625-1.984375zm0 0" fill-opacity=".235294"/><path d="m233.383963-83.981262c-6.155662 0-10.99895 5.249499-10.530244 11.373914l10.561491 137.580612c.437458 5.499475 5.03077 9.749069 10.561491 9.749069h21.15423c5.530722 0 10.124033-4.249594 10.530245-9.749069l10.592738-137.580612c.468705-6.124415-4.374582-11.373914-10.530244-11.373914zm21.15423 179.889072c-11.717631 0-21.15423 9.436599-21.15423 21.185477 0 11.717631 9.436599 21.15423 21.15423 21.15423 11.748878 0 21.185477-9.436599 21.185477-21.15423 0-11.748878-9.436599-21.185477-21.185477-21.185477zm0 0" fill="none" stroke="#212121" stroke-linecap="round" stroke-linejoin="round" stroke-width="3" transform="matrix(.125012 0 0 .125012 0 26.877566)"/></svg>

<?xml version="1.0" encoding="UTF-8"?>
<svg xmlns="http://www.w3.org/2000/svg" xmlns:xlink="http://www.w3.org/1999/xlink" width="64px" height="64px" viewBox="0 0 64 64" version="1.1">
<defs>
<linearGradient id="linear0" gradientUnits="userSpaceOnUse" x1="254" y1="233.5" x2="254" y2="254.666672" gradientTransform="matrix(0.125012,0,0,0.125012,-0.00000763012,26.87757)">
<stop offset="0" style="stop-color:rgb(0%,0%,0%);stop-opacity:0.27451;"/>
<stop offset="1" style="stop-color:rgb(0%,0%,0%);stop-opacity:0;"/>
</linearGradient>
<radialGradient id="radial0" gradientUnits="userSpaceOnUse" cx="450.908936" cy="189.579361" fx="450.908936" fy="189.579361" r="21.166656" gradientTransform="matrix(0.000000348341,-0.156265,-0.281277,-0.000000203077,104.261296,127.190665)">
<stop offset="0" style="stop-color:rgb(0%,0%,0%);stop-opacity:0.313726;"/>
<stop offset="0.222222" style="stop-color:rgb(0%,0%,0%);stop-opacity:0.27451;"/>
<stop offset="1" style="stop-color:rgb(0%,0%,0%);stop-opacity:0;"/>
</radialGradient>
<radialGradient id="radial1" gradientUnits="userSpaceOnUse" cx="450.908936" cy="189.579361" fx="450.908936" fy="189.579361" r="21.166656" gradientTransform="matrix(-0.000000348341,0.156265,0.281277,0.000000203077,-40.755227,-15.054958)">
<stop offset="0" style="stop-color:rgb(0%,0%,0%);stop-opacity:0.313726;"/>
<stop offset="0.222222" style="stop-color:rgb(0%,0%,0%);stop-opacity:0.27451;"/>
<stop offset="1" style="stop-color:rgb(0%,0%,0%);stop-opacity:0;"/>
</radialGradient>
<radialGradient id="radial2" gradientUnits="userSpaceOnUse" cx="450.908936" cy="189.579361" fx="450.908936" fy="189.579361" r="21.166656" gradientTransform="matrix(-0.000000348341,-0.156265,0.281277,-0.000000203077,-40.755227,127.190665)">
<stop offset="0" style="stop-color:rgb(0%,0%,0%);stop-opacity:0.313726;"/>
<stop offset="0.222222" style="stop-color:rgb(0%,0%,0%);stop-opacity:0.27451;"/>
<stop offset="1" style="stop-color:rgb(0%,0%,0%);stop-opacity:0;"/>
</radialGradient>
<radialGradient id="radial3" gradientUnits="userSpaceOnUse" cx="450.908936" cy="189.579361" fx="450.908936" fy="189.579361" r="21.166656" gradientTransform="matrix(0.000000348341,0.156265,-0.281277,0.000000203077,104.261293,-15.054959)">
<stop offset="0" style="stop-color:rgb(0%,0%,0%);stop-opacity:0.313726;"/>
<stop offset="0.222222" style="stop-color:rgb(0%,0%,0%);stop-opacity:0.27451;"/>
<stop offset="1" style="stop-color:rgb(0%,0%,0%);stop-opacity:0;"/>
</radialGradient>
<linearGradient id="linear1" gradientUnits="userSpaceOnUse" x1="169.333328" y1="233.5" x2="169.333328" y2="-168.666656" gradientTransform="matrix(0.125012,0,0,0.125012,0,26.877566)">
<stop offset="0" style="stop-color:rgb(95.686275%,26.274511%,21.176471%);stop-opacity:1;"/>
<stop offset="1" style="stop-color:rgb(93.725491%,32.549021%,31.37255%);stop-opacity:1;"/>
</linearGradient>
<linearGradient id="linear2" gradientUnits="userSpaceOnUse" x1="960" y1="1455.118164" x2="960" y2="175.118118" gradientTransform="matrix(0.0330761,0,0,0.0330761,0.0684153,5.292236)">
<stop offset="0" style="stop-color:rgb(74.117649%,74.117649%,74.117649%);stop-opacity:1;"/>
<stop offset="1" style="stop-color:rgb(87.843138%,87.843138%,87.843138%);stop-opacity:1;"/>
</linearGradient>
</defs>
<g id="surface1">
<path style=" stroke:none;fill-rule:nonzero;fill:url(#linear0);" d="M 11.90625 55.871094 L 51.597656 55.871094 L 51.597656 58.8125 L 11.90625 58.8125 Z M 11.90625 55.871094 "/>
<path style=" stroke:none;fill-rule:nonzero;fill:url(#radial0);" d="M 51.597656 56.066406 L 56.890625 56.066406 L 56.890625 53.421875 L 51.597656 53.421875 Z M 51.597656 56.066406 "/>
<path style=" stroke:none;fill-rule:nonzero;fill:url(#radial1);" d="M 11.90625 56.066406 L 6.613281 56.066406 L 6.613281 58.714844 L 11.90625 58.714844 Z M 11.90625 56.066406 "/>
<path style=" stroke:none;fill-rule:nonzero;fill:url(#radial2);" d="M 11.90625 56.066406 L 6.613281 56.066406 L 6.613281 53.421875 L 11.90625 53.421875 Z M 11.90625 56.066406 "/>
<path style=" stroke:none;fill-rule:nonzero;fill:url(#radial3);" d="M 51.597656 56.066406 L 56.890625 56.066406 L 56.890625 58.714844 L 51.597656 58.714844 Z M 51.597656 56.066406 "/>
<path style=" stroke:none;fill-rule:nonzero;fill:url(#linear1);" d="M 9.261719 5.792969 L 54.246094 5.792969 C 55.707031 5.792969 56.890625 6.976562 56.890625 8.4375 L 56.890625 53.421875 C 56.890625 54.882812 55.707031 56.066406 54.246094 56.066406 L 9.261719 56.066406 C 7.800781 56.066406 6.613281 54.882812 6.613281 53.421875 L 6.613281 8.4375 C 6.613281 6.976562 7.800781 5.792969 9.261719 5.792969 Z M 9.261719 5.792969 "/>
<path style=" stroke:none;fill-rule:nonzero;fill:rgb(90.196079%,90.196079%,90.196079%);fill-opacity:0.392157;" d="M 9.261719 5.792969 C 7.796875 5.792969 6.613281 6.972656 6.613281 8.4375 L 6.613281 8.769531 C 6.613281 7.304688 7.796875 6.121094 9.261719 6.121094 L 54.246094 6.121094 C 55.710938 6.121094 56.890625 7.304688 56.890625 8.769531 L 56.890625 8.4375 C 56.890625 6.972656 55.710938 5.792969 54.246094 5.792969 Z M 9.261719 5.792969 "/>
<path style=" stroke:none;fill-rule:nonzero;fill:rgb(0%,0%,0%);fill-opacity:0.196078;" d="M 9.261719 56.066406 C 7.796875 56.066406 6.613281 54.886719 6.613281 53.421875 L 6.613281 53.089844 C 6.613281 54.558594 7.796875 55.738281 9.261719 55.738281 L 54.246094 55.738281 C 55.710938 55.738281 56.890625 54.558594 56.890625 53.089844 L 56.890625 53.421875 C 56.890625 54.886719 55.710938 56.066406 54.246094 56.066406 Z M 9.261719 56.066406 "/>
<path style="fill:none;stroke-width:3;stroke-linecap:round;stroke-linejoin:miter;stroke:rgb(12.941177%,12.941177%,12.941177%);stroke-opacity:1;stroke-miterlimit:4;" d="M 74.086675 -168.660675 L 433.927312 -168.660675 C 445.613696 -168.660675 455.081542 -159.192829 455.081542 -147.506445 L 455.081542 212.334192 C 455.081542 224.020576 445.613696 233.488421 433.927312 233.488421 L 74.086675 233.488421 C 62.400291 233.488421 52.901198 224.020576 52.901198 212.334192 L 52.901198 -147.506445 C 52.901198 -159.192829 62.400291 -168.660675 74.086675 -168.660675 Z M 74.086675 -168.660675 " transform="matrix(0.125012,0,0,0.125012,0,26.877566)"/>
<path style=" stroke:none;fill-rule:nonzero;fill:url(#linear2);" d="M 29.175781 16.378906 C 28.40625 16.378906 27.800781 17.035156 27.859375 17.800781 L 29.179688 35 C 29.234375 35.6875 29.808594 36.21875 30.5 36.21875 L 33.144531 36.21875 C 33.835938 36.21875 34.410156 35.6875 34.460938 35 L 35.785156 17.800781 C 35.84375 17.035156 35.238281 16.378906 34.46875 16.378906 Z M 31.820312 38.867188 C 30.355469 38.867188 29.175781 40.046875 29.175781 41.515625 C 29.175781 42.980469 30.355469 44.160156 31.820312 44.160156 C 33.289062 44.160156 34.46875 42.980469 34.46875 41.515625 C 34.46875 40.046875 33.289062 38.867188 31.820312 38.867188 Z M 31.820312 38.867188 "/>
<path style=" stroke:none;fill-rule:nonzero;fill:rgb(100%,100%,100%);fill-opacity:0.86129;" d="M 29.175781 16.378906 C 28.40625 16.378906 27.800781 17.035156 27.859375 17.800781 L 27.898438 18.347656 C 28.050781 17.789062 28.5625 17.371094 29.175781 17.371094 L 34.46875 17.371094 C 35.082031 17.371094 35.589844 17.789062 35.742188 18.347656 L 35.785156 17.800781 C 35.84375 17.035156 35.238281 16.378906 34.46875 16.378906 Z M 31.820312 38.867188 C 30.355469 38.867188 29.175781 40.046875 29.175781 41.515625 C 29.175781 41.683594 29.191406 41.851562 29.222656 42.011719 C 29.453125 40.785156 30.523438 39.859375 31.820312 39.859375 C 33.117188 39.859375 34.191406 40.785156 34.421875 42.011719 C 34.453125 41.851562 34.46875 41.683594 34.46875 41.515625 C 34.46875 40.046875 33.289062 38.867188 31.820312 38.867188 Z M 31.820312 38.867188 "/>
<path style=" stroke:none;fill-rule:nonzero;fill:rgb(0%,0%,0%);fill-opacity:0.235294;" d="M 27.921875 18.613281 C 27.867188 18.773438 27.84375 18.945312 27.859375 19.125 L 29.179688 36.324219 C 29.234375 37.015625 29.808594 37.546875 30.5 37.546875 L 33.144531 37.546875 C 33.835938 37.546875 34.410156 37.015625 34.460938 36.324219 L 35.785156 19.125 C 35.796875 18.945312 35.773438 18.773438 35.722656 18.613281 L 34.460938 35 C 34.410156 35.6875 33.835938 36.21875 33.144531 36.21875 L 30.5 36.21875 C 29.808594 36.21875 29.234375 35.6875 29.179688 35 Z M 29.257812 42.175781 C 29.203125 42.386719 29.175781 42.609375 29.175781 42.839844 C 29.175781 44.304688 30.355469 45.484375 31.820312 45.484375 C 33.289062 45.484375 34.46875 44.304688 34.46875 42.839844 C 34.46875 42.609375 34.4375 42.386719 34.382812 42.175781 C 34.09375 43.320312 33.058594 44.160156 31.820312 44.160156 C 30.585938 44.160156 29.550781 43.320312 29.257812 42.175781 Z M 29.257812 42.175781 "/>
<path style="fill:none;stroke-width:3;stroke-linecap:round;stroke-linejoin:round;stroke:rgb(12.941177%,12.941177%,12.941177%);stroke-opacity:1;stroke-miterlimit:4;" d="M 233.383963 -83.981262 C 227.228301 -83.981262 222.385013 -78.731763 222.853719 -72.607348 L 233.41521 64.973264 C 233.852668 70.472739 238.44598 74.722333 243.976701 74.722333 L 265.130931 74.722333 C 270.661653 74.722333 275.254964 70.472739 275.661176 64.973264 L 286.253914 -72.607348 C 286.722619 -78.731763 281.879332 -83.981262 275.72367 -83.981262 Z M 254.538193 95.90781 C 242.820562 95.90781 233.383963 105.344409 233.383963 117.093287 C 233.383963 128.810918 242.820562 138.247517 254.538193 138.247517 C 266.287071 138.247517 275.72367 128.810918 275.72367 117.093287 C 275.72367 105.344409 266.287071 95.90781 254.538193 95.90781 Z M 254.538193 95.90781 " transform="matrix(0.125012,0,0,0.125012,0,26.877566)"/>
</g>
</svg>
